src/components/Icon/utils/svgsOptimized/bell.svg

<svg width="24" height="24" viewBox="0 0 24 24"  xmlns="http://www.w3.org/2000/svg">
<path d="M16.9578 14.525C16.4878 14.025 16.2478 13.465 16.2478 12.875V9.875C16.2478 7.535 14.3378 5.625 11.9978 5.625C9.65779 5.625 7.74779 7.535 7.74779 9.875V12.875C7.74779 13.465 7.50779 14.025 7.03779 14.525C6.69779 14.885 6.60779 15.415 6.79779 15.865C6.99779 16.325 7.44779 16.625 7.94779 16.625H10.0978C10.3578 17.635 11.0978 18.375 11.9978 18.375C12.8878 18.375 13.6378 17.635 13.8978 16.625H16.0478C16.5478 16.625 16.9978 16.325 17.1978 15.865C17.3978 15.415 17.2978 14.885 16.9578 14.525Z" />
</svg>

<?xml version="1.0" encoding="utf-8"?><svg width="24" height="24" xmlns="http://www.w3.org/2000/svg" viewBox="0 0 24 24"><path d="M16.958 14.525c-.47-.5-.71-1.06-.71-1.65v-3a4.26 4.26 0 0 0-4.25-4.25 4.26 4.26 0 0 0-4.25 4.25v3c0 .59-.24 1.15-.71 1.65-.34.36-.43.89-.24 1.34.2.46.65.76 1.15.76h2.15c.26 1.01 1 1.75 1.9 1.75.89 0 1.64-.74 1.9-1.75h2.15c.5 0 .95-.3 1.15-.76.2-.45.1-.98-.24-1.34Z"/></svg>
